frontend/public/images/why-zipsea.svg

<svg width="18" height="18" viewBox="0 0 18 18" fill="none" xmlns="http://www.w3.org/2000/svg">
<path d="M6.06934 6.31836C6.46126 6.14636 7.28356 5.90302 8.08594 6.04004C9.17853 6.22685 9.51264 6.66491 9.64844 6.77441C9.77739 6.87847 10.594 7.75839 11.8145 7.09766C11.897 7.05299 12 7.11255 12 7.20996V9.47949C12 9.53181 11.9688 9.57887 11.9219 9.59668L9.50684 10.5137C9.41136 10.5499 9.39926 10.6895 9.48145 10.752C9.50252 10.7679 9.52317 10.7842 9.54297 10.8008C10.0429 11.2194 10.3024 11.4638 10.833 11.4639C11.2557 11.4639 11.5536 11.3538 11.8193 11.208C11.9005 11.1636 12 11.2233 12 11.3193V12.7012C12 12.7522 11.9707 12.7988 11.9248 12.8154C11.6062 12.9306 10.964 13.0773 10.333 12.9521C9.63193 12.813 9.10651 12.4344 8.93164 12.2627C8.68655 12.05 8.0849 11.6332 7.63574 11.6641C7.11178 11.7001 7.00654 11.6684 6.16797 12.0615C6.08928 12.0984 6.00006 12.0386 6 11.9482V9.71973C6 9.66741 6.03125 9.62035 6.07812 9.60254L9.21387 8.41211C9.24017 8.40213 9.24459 8.3647 9.22266 8.34668C8.93261 8.11484 8.16089 7.50289 7.56836 7.52832C7.04679 7.551 6.6588 7.67374 6.17773 7.93555C6.09755 7.97919 6 7.919 6 7.82422V6.42969C6.00014 6.3813 6.02682 6.3371 6.06934 6.31836Z" fill="white"/>
<path fill-rule="evenodd" clip-rule="evenodd" d="M9 0.25C13.8325 0.25 17.75 4.16751 17.75 9C17.75 13.8325 13.8325 17.75 9 17.75C4.16751 17.75 0.25 13.8325 0.25 9C0.25 4.16751 4.16751 0.25 9 0.25ZM9 1.75C4.99594 1.75 1.75 4.99594 1.75 9C1.75 13.0041 4.99594 16.25 9 16.25C13.0041 16.25 16.25 13.0041 16.25 9C16.25 4.99594 13.0041 1.75 9 1.75Z" fill="white"/>
</svg>

<svg fill="none" viewBox="0 0 18 18"><path fill="#fff" d="M6.07 6.318c.391-.172 1.214-.415 2.016-.278 1.093.187 1.427.625 1.562.734.13.104.946.984 2.167.324A.126.126 0 0 1 12 7.21v2.27a.13.13 0 0 1-.078.117l-2.415.917c-.096.036-.108.176-.026.238q.033.024.062.049c.5.418.76.663 1.29.663.423 0 .72-.11.986-.256a.123.123 0 0 1 .181.111v1.382a.12.12 0 0 1-.075.114c-.319.116-.961.262-1.592.137-.701-.139-1.226-.518-1.401-.69-.245-.212-.847-.629-1.296-.598-.524.036-.63.004-1.468.398-.079.036-.168-.023-.168-.114V9.72c0-.053.031-.1.078-.117l3.136-1.19c.026-.01.03-.048.009-.066-.29-.232-1.062-.844-1.655-.819-.521.023-.91.146-1.39.408-.08.043-.178-.017-.178-.112V6.43a.12.12 0 0 1 .07-.112"/><path fill="#fff" fill-rule="evenodd" d="M9 .25a8.75 8.75 0 1 1 0 17.5A8.75 8.75 0 0 1 9 .25m0 1.5a7.25 7.25 0 1 0 0 14.5 7.25 7.25 0 0 0 0-14.5" clip-rule="evenodd"/></svg>
